third_party/noto/noto_2/emoji_u1f4f1.svg

<svg enable-background="new 0 0 128 128" viewBox="0 0 128 128" xmlns="http://www.w3.org/2000/svg"><linearGradient id="b" x1="64" x2="64" y1="124" y2="4" gradientUnits="userSpaceOnUse"><stop stop-color="#212121" offset=".0029098"/><stop stop-color="#4D4D4D" offset="1"/></linearGradient><path d="m87.41 124h-46.82c-4.71 0-8.56-3.85-8.56-8.56v-102.88c0-4.71 3.85-8.56 8.56-8.56h46.81c4.71 0 8.56 3.85 8.56 8.56v102.87c0.01 4.72-3.84 8.57-8.55 8.57z" fill="url(#b)"/><g opacity=".2"><path d="m87.41 7c3.07 0 5.56 2.5 5.56 5.56v102.87c0 3.07-2.5 5.56-5.56 5.56h-46.82c-3.07 0-5.56-2.5-5.56-5.56v-102.87c0-3.07 2.5-5.56 5.56-5.56h46.82m0-3h-46.82c-4.71 0-8.56 3.85-8.56 8.56v102.87c0 4.71 3.85 8.56 8.56 8.56h46.81c4.71 0 8.56-3.85 8.56-8.56v-102.87c0.01-4.71-3.84-8.56-8.55-8.56z" fill="#eee"/></g><linearGradient id="a" x1="64.007" x2="64.007" y1="108.03" y2="19.974" gradientUnits="userSpaceOnUse"><stop stop-color="#9E9E9E" offset=".0085898"/><stop stop-color="#616161" offset=".9987"/></linearGradient><path d="m86.6 108.03h-45.18c-0.75 0-1.36-0.61-1.36-1.36v-85.33c0-0.75 0.61-1.36 1.36-1.36h45.18c0.75 0 1.36 0.61 1.36 1.36v85.33c0 0.74-0.61 1.36-1.36 1.36z" fill="url(#a)"/><path d="m73.56 14.65h-19.12c-0.69 0-1.25-0.56-1.25-1.25s0.56-1.25 1.25-1.25h19.12c0.69 0 1.25 0.56 1.25 1.25s-0.56 1.25-1.25 1.25z" fill="#212121"/><path d="m73.56 115.85h-19.12c-0.69 0-1.25-0.56-1.25-1.25s0.56-1.25 1.25-1.25h19.12c0.69 0 1.25 0.56 1.25 1.25 0 0.68-0.56 1.25-1.25 1.25z"/><path d="m83.39 31.98h-38.63c-0.38 0-0.68-0.3-0.68-0.68v-6.57c0-0.38 0.3-0.68 0.68-0.68h38.62c0.38 0 0.68 0.3 0.68 0.68v6.57c0.01 0.37-0.3 0.68-0.67 0.68z" fill="#F5F5F5"/><path d="m49.78 84h-3.58c-1.21 0-2.2-0.98-2.2-2.2v-3.58c0-1.21 0.98-2.2 2.2-2.2h3.58c1.21 0 2.2 0.98 2.2 2.2v3.58c0 1.22-0.98 2.2-2.2 2.2z" fill="#159E5C"/><path d="m49.78 96h-3.58c-1.21 0-2.2-0.98-2.2-2.2v-3.58c0-1.21 0.98-2.2 2.2-2.2h3.58c1.21 0 2.2 0.98 2.2 2.2v3.58c0 1.22-0.98 2.2-2.2 2.2z" fill="#FB5352"/><path d="m60.43 96h-3.58c-1.21 0-2.2-0.98-2.2-2.2v-3.58c0-1.21 0.98-2.2 2.2-2.2h3.58c1.21 0 2.2 0.98 2.2 2.2v3.58c0 1.22-0.99 2.2-2.2 2.2z" fill="#4587F5"/><path d="m71.39 96h-3.59c-1.21 0-2.2-0.98-2.2-2.2v-3.58c0-1.21 0.98-2.2 2.2-2.2h3.58c1.21 0 2.2 0.98 2.2 2.2v3.58c0.01 1.22-0.98 2.2-2.19 2.2z" fill="#159E5C"/><path d="m81.72 96h-3.58c-1.21 0-2.2-0.98-2.2-2.2v-3.58c0-1.21 0.98-2.2 2.2-2.2h3.58c1.21 0 2.2 0.98 2.2 2.2v3.58c0 1.22-0.99 2.2-2.2 2.2z" fill="#FECD41"/><path d="m60.43 84h-3.58c-1.21 0-2.2-0.98-2.2-2.2v-3.58c0-1.21 0.98-2.2 2.2-2.2h3.58c1.21 0 2.2 0.98 2.2 2.2v3.58c0 1.22-0.99 2.2-2.2 2.2z" fill="#FECD41"/><path d="m71.39 84h-3.59c-1.21 0-2.2-0.98-2.2-2.2v-3.58c0-1.21 0.98-2.2 2.2-2.2h3.58c1.21 0 2.2 0.98 2.2 2.2v3.58c0.01 1.22-0.98 2.2-2.19 2.2z" fill="#FF6D00"/><path d="m81.72 84h-3.58c-1.21 0-2.2-0.98-2.2-2.2v-3.58c0-1.21 0.98-2.2 2.2-2.2h3.58c1.21 0 2.2 0.98 2.2 2.2v3.58c0 1.22-0.99 2.2-2.2 2.2z" fill="#DE493C"/><g fill="#fff"><path d="m64 102.5c0.83 0 1.5 0.67 1.5 1.5s-0.67 1.5-1.5 1.5-1.5-0.67-1.5-1.5 0.67-1.5 1.5-1.5m0-0.5c-1.1 0-2 0.9-2 2s0.9 2 2 2 2-0.9 2-2-0.9-2-2-2z"/><path d="m79.15 102.5c0.15 0 0.28 0.13 0.28 0.28v2.44c0 0.15-0.13 0.28-0.28 0.28h-2.44c-0.15 0-0.28-0.13-0.28-0.28v-2.44c0-0.15 0.13-0.28 0.28-0.28h2.44m0-0.5h-2.44c-0.43 0-0.78 0.35-0.78 0.78v2.44c0 0.43 0.35 0.78 0.78 0.78h2.44c0.43 0 0.78-0.35 0.78-0.78v-2.44c0-0.43-0.35-0.78-0.78-0.78z"/><path d="m51.48 102.72v2.56l-2.55-1.28 2.55-1.28m0.35-0.72c-0.02 0-0.04 0-0.06 0.02l-3.7 1.86c-0.11 0.05-0.11 0.2 0 0.26l3.7 1.86c0.02 0.01 0.04 0.02 0.06 0.02 0.08 0 0.14-0.06 0.14-0.14v-3.74c0.01-0.08-0.06-0.14-0.14-0.14z"/></g></svg>

<svg width="128" height="128" style="enable-background:new 0 0 128 128;" xmlns="http://www.w3.org/2000/svg" xmlns:xlink="http://www.w3.org/1999/xlink">
  <g id="Layer_1">
    <linearGradient id="SVGID_1_" gradientUnits="userSpaceOnUse" x1="64" x2="64" y1="124" y2="4">
      <stop offset="2.909758e-03" style="stop-color:#212121"/>
      <stop offset="1" style="stop-color:#4D4D4D"/>
    </linearGradient>
    <path d="M87.41,124H40.59c-4.71,0-8.56-3.85-8.56-8.56V12.56c0-4.71,3.85-8.56,8.56-8.56h46.81 c4.71,0,8.56,3.85,8.56,8.56v102.87C95.97,120.15,92.12,124,87.41,124z" style="fill:url(#SVGID_1_);"/>
    <g style="opacity:0.2;">
      <path d="M87.41,7c3.07,0,5.56,2.5,5.56,5.56v102.87c0,3.07-2.5,5.56-5.56,5.56H40.59 c-3.07,0-5.56-2.5-5.56-5.56V12.56c0-3.07,2.5-5.56,5.56-5.56H87.41 M87.41,4H40.59c-4.71,0-8.56,3.85-8.56,8.56v102.87 c0,4.71,3.85,8.56,8.56,8.56h46.81c4.71,0,8.56-3.85,8.56-8.56V12.56C95.97,7.85,92.12,4,87.41,4L87.41,4z" style="fill:#EEEEEE;"/>
    </g>
    <linearGradient id="SVGID_3_" gradientUnits="userSpaceOnUse" x1="64.0069" x2="64.0069" y1="108.0261" y2="19.9739">
      <stop offset="8.589764e-03" style="stop-color:#9E9E9E"/>
      <stop offset="0.9987" style="stop-color:#616161"/>
    </linearGradient>
    <path d="M86.6,108.03H41.42c-0.75,0-1.36-0.61-1.36-1.36V21.34c0-0.75,0.61-1.36,1.36-1.36H86.6 c0.75,0,1.36,0.61,1.36,1.36v85.33C87.96,107.41,87.35,108.03,86.6,108.03z" style="fill:url(#SVGID_3_);"/>
    <path d="M73.56,14.65H54.44c-0.69,0-1.25-0.56-1.25-1.25v0c0-0.69,0.56-1.25,1.25-1.25h19.12 c0.69,0,1.25,0.56,1.25,1.25v0C74.81,14.09,74.25,14.65,73.56,14.65z" style="fill:#212121;"/>
    <path d="M73.56,115.85H54.44c-0.69,0-1.25-0.56-1.25-1.25l0,0c0-0.69,0.56-1.25,1.25-1.25h19.12c0.69,0,1.25,0.56,1.25,1.25l0,0 C74.81,115.28,74.25,115.85,73.56,115.85z"/>
    <path d="M83.39,31.98H44.76c-0.38,0-0.68-0.3-0.68-0.68v-6.57c0-0.38,0.3-0.68,0.68-0.68h38.62 c0.38,0,0.68,0.3,0.68,0.68v6.57C84.07,31.67,83.76,31.98,83.39,31.98z" style="fill:#F5F5F5;"/>
    <g>
      <path d="M49.78,84H46.2c-1.21,0-2.2-0.98-2.2-2.2v-3.58c0-1.21,0.98-2.2,2.2-2.2h3.58 c1.21,0,2.2,0.98,2.2,2.2v3.58C51.98,83.02,51,84,49.78,84z" style="fill:#159E5C;"/>
      <path d="M49.78,96H46.2c-1.21,0-2.2-0.98-2.2-2.2v-3.58c0-1.21,0.98-2.2,2.2-2.2h3.58 c1.21,0,2.2,0.98,2.2,2.2v3.58C51.98,95.02,51,96,49.78,96z" style="fill:#FB5352;"/>
      <path d="M60.43,96h-3.58c-1.21,0-2.2-0.98-2.2-2.2v-3.58c0-1.21,0.98-2.2,2.2-2.2h3.58 c1.21,0,2.2,0.98,2.2,2.2v3.58C62.63,95.02,61.64,96,60.43,96z" style="fill:#4587F5;"/>
      <path d="M71.39,96H67.8c-1.21,0-2.2-0.98-2.2-2.2v-3.58c0-1.21,0.98-2.2,2.2-2.2h3.58 c1.21,0,2.2,0.98,2.2,2.2v3.58C73.59,95.02,72.6,96,71.39,96z" style="fill:#159E5C;"/>
      <path d="M81.72,96h-3.58c-1.21,0-2.2-0.98-2.2-2.2v-3.58c0-1.21,0.98-2.2,2.2-2.2h3.58 c1.21,0,2.2,0.98,2.2,2.2v3.58C83.92,95.02,82.93,96,81.72,96z" style="fill:#FECD41;"/>
      <path d="M60.43,84h-3.58c-1.21,0-2.2-0.98-2.2-2.2v-3.58c0-1.21,0.98-2.2,2.2-2.2h3.58 c1.21,0,2.2,0.98,2.2,2.2v3.58C62.63,83.02,61.64,84,60.43,84z" style="fill:#FECD41;"/>
      <path d="M71.39,84H67.8c-1.21,0-2.2-0.98-2.2-2.2v-3.58c0-1.21,0.98-2.2,2.2-2.2h3.58 c1.21,0,2.2,0.98,2.2,2.2v3.58C73.59,83.02,72.6,84,71.39,84z" style="fill:#FF6D00;"/>
      <path d="M81.72,84h-3.58c-1.21,0-2.2-0.98-2.2-2.2v-3.58c0-1.21,0.98-2.2,2.2-2.2h3.58 c1.21,0,2.2,0.98,2.2,2.2v3.58C83.92,83.02,82.93,84,81.72,84z" style="fill:#DE493C;"/>
    </g>
    <g>
      <path d="M64,102.5c0.83,0,1.5,0.67,1.5,1.5s-0.67,1.5-1.5,1.5c-0.83,0-1.5-0.67-1.5-1.5 S63.17,102.5,64,102.5 M64,102c-1.1,0-2,0.9-2,2s0.9,2,2,2s2-0.9,2-2S65.1,102,64,102L64,102z" style="fill:#FFFFFF;"/>
      <path d="M79.15,102.5c0.15,0,0.28,0.13,0.28,0.28v2.44c0,0.15-0.13,0.28-0.28,0.28h-2.44 c-0.15,0-0.28-0.13-0.28-0.28v-2.44c0-0.15,0.13-0.28,0.28-0.28H79.15 M79.15,102h-2.44c-0.43,0-0.78,0.35-0.78,0.78v2.44 c0,0.43,0.35,0.78,0.78,0.78h2.44c0.43,0,0.78-0.35,0.78-0.78v-2.44C79.93,102.35,79.58,102,79.15,102L79.15,102z" style="fill:#FFFFFF;"/>
      <path d="M51.48,102.72V104v1.28L48.93,104L51.48,102.72 M51.83,102c-0.02,0-0.04,0-0.06,0.02l-3.7,1.86 c-0.11,0.05-0.11,0.2,0,0.26l3.7,1.86c0.02,0.01,0.04,0.02,0.06,0.02c0.08,0,0.14-0.06,0.14-0.14V104v-1.86 C51.98,102.06,51.91,102,51.83,102L51.83,102z" style="fill:#FFFFFF;"/>
    </g>
  </g>
  <g id="Layer_2" style="display:none;">
    <g style="display:inline;">
      <g style="opacity:0.6;">
        <circle cx="64" cy="64" r="28" style="opacity:0.61;fill:none;stroke:#000000;stroke-width:0.2625;stroke-miterlimit:10;"/>
        <line style="opacity:0.61;fill:none;stroke:#000000;stroke-miterlimit:10;" x1="83.5" x2="83.5" y1="0" y2="128"/>
        <line style="opacity:0.61;fill:none;stroke:#000000;stroke-miterlimit:10;" x1="43.5" x2="43.5" y1="0" y2="128"/>
        <line style="opacity:0.61;fill:none;stroke:#000000;stroke-miterlimit:10;" x1="63.5" x2="63.5" y1="0" y2="128"/>
        <line style="opacity:0.61;fill:none;stroke:#000000;stroke-miterlimit:10;" x1="128" x2="0" y1="64.5" y2="64.5"/>
        <line style="opacity:0.61;fill:none;stroke:#000000;stroke-miterlimit:10;" x1="128" x2="0" y1="44.5" y2="44.5"/>
        <line style="opacity:0.61;fill:none;stroke:#000000;stroke-miterlimit:10;" x1="128" x2="0" y1="83.5" y2="83.5"/>
        <line style="opacity:0.61;fill:none;stroke:#000000;stroke-width:0.25;stroke-miterlimit:10;" x1="128" x2="0" y1="128" y2="0"/>
        <line style="opacity:0.61;fill:none;stroke:#000000;stroke-width:0.25;stroke-miterlimit:10;" x1="0" x2="128" y1="128" y2="0"/>
        <g style="opacity:0.61;">
          <path d="M64,4.26c32.94,0,59.74,26.8,59.74,59.74S96.94,123.74,64,123.74S4.26,96.94,4.26,64S31.06,4.26,64,4.26 M64,4 C30.86,4,4,30.86,4,64s26.86,60,60,60s60-26.86,60-60S97.14,4,64,4L64,4z"/>
        </g>
        <path d="M115.5,108.47c0,4.43-3.59,8.03-8.03,8.03H19.53 c-4.43,0-8.03-3.59-8.03-8.03V20.53c0-4.43,3.59-8.03,8.03-8.03h87.94c4.43,0,8.03,3.59,8.03,8.03V108.47z" style="opacity:0.61;fill:none;stroke:#000000;stroke-miterlimit:10;"/>
        <path d="M107.5,116.5c0,4.42-3.58,8-8,8h-72 c-4.42,0-8-3.58-8-8v-104c0-4.42,3.58-8,8-8h72c4.42,0,8,3.58,8,8V116.5z" style="opacity:0.61;fill:none;stroke:#000000;stroke-miterlimit:10;"/>
        <path d="M123.5,98.27c0,5.65-4.58,10.23-10.23,10.23H13.73 c-5.65,0-10.23-4.58-10.23-10.23V30.73c0-5.65,4.58-10.23,10.23-10.23h99.54c5.65,0,10.23,4.58,10.23,10.23V98.27z" style="opacity:0.61;fill:none;stroke:#000000;stroke-miterlimit:10;"/>
      </g>
      <g>
        <g style="opacity:0.2;">
          <defs>
            <rect id="SVGID_2_" height="128" style="opacity:0.2;" width="128" x="0"/>
          </defs>
          <clipPath id="SVGID_4_">
            <use style="overflow:visible;" xlink:href="#SVGID_2_"/>
          </clipPath>
          <g style="clip-path:url(#SVGID_4_);">
            <g>
              <line style="fill:none;stroke:#000000;stroke-miterlimit:10;" x1="-28.5" x2="-28.5" y1="160" y2="-32"/>
              <line style="fill:none;stroke:#000000;stroke-miterlimit:10;" x1="-24.5" x2="-24.5" y1="160" y2="-32"/>
              <line style="fill:none;stroke:#000000;stroke-miterlimit:10;" x1="-20.5" x2="-20.5" y1="160" y2="-32"/>
              <line style="fill:none;stroke:#000000;stroke-miterlimit:10;" x1="-16.5" x2="-16.5" y1="160" y2="-32"/>
              <line style="fill:none;stroke:#000000;stroke-miterlimit:10;" x1="-12.5" x2="-12.5" y1="160" y2="-32"/>
              <line style="fill:none;stroke:#000000;stroke-miterlimit:10;" x1="-8.5" x2="-8.5" y1="160" y2="-32"/>
              <line style="fill:none;stroke:#000000;stroke-miterlimit:10;" x1="-4.5" x2="-4.5" y1="160" y2="-32"/>
              <line style="fill:none;stroke:#000000;stroke-miterlimit:10;" x1="-0.5" x2="-0.5" y1="160" y2="-32"/>
              <line style="fill:none;stroke:#000000;stroke-miterlimit:10;" x1="3.5" x2="3.5" y1="160" y2="-32"/>
              <line style="fill:none;stroke:#000000;stroke-miterlimit:10;" x1="7.5" x2="7.5" y1="160" y2="-32"/>
              <line style="fill:none;stroke:#000000;stroke-miterlimit:10;" x1="11.5" x2="11.5" y1="160" y2="-32"/>
              <line style="fill:none;stroke:#000000;stroke-miterlimit:10;" x1="15.5" x2="15.5" y1="160" y2="-32"/>
              <line style="fill:none;stroke:#000000;stroke-miterlimit:10;" x1="19.5" x2="19.5" y1="160" y2="-32"/>
              <line style="fill:none;stroke:#000000;stroke-miterlimit:10;" x1="23.5" x2="23.5" y1="160" y2="-32"/>
              <line style="fill:none;stroke:#000000;stroke-miterlimit:10;" x1="27.5" x2="27.5" y1="160" y2="-32"/>
              <line style="fill:none;stroke:#000000;stroke-miterlimit:10;" x1="31.5" x2="31.5" y1="160" y2="-32"/>
              <line style="fill:none;stroke:#000000;stroke-miterlimit:10;" x1="35.5" x2="35.5" y1="160" y2="-32"/>
              <line style="fill:none;stroke:#000000;stroke-miterlimit:10;" x1="39.5" x2="39.5" y1="160" y2="-32"/>
              <line style="fill:none;stroke:#000000;stroke-miterlimit:10;" x1="43.5" x2="43.5" y1="160" y2="-32"/>
              <line style="fill:none;stroke:#000000;stroke-miterlimit:10;" x1="47.5" x2="47.5" y1="160" y2="-32"/>
              <line style="fill:none;stroke:#000000;stroke-miterlimit:10;" x1="51.5" x2="51.5" y1="160" y2="-32"/>
              <line style="fill:none;stroke:#000000;stroke-miterlimit:10;" x1="55.5" x2="55.5" y1="160" y2="-32"/>
              <line style="fill:none;stroke:#000000;stroke-miterlimit:10;" x1="59.5" x2="59.5" y1="160" y2="-32"/>
              <line style="fill:none;stroke:#000000;stroke-miterlimit:10;" x1="63.5" x2="63.5" y1="160" y2="-32"/>
              <line style="fill:none;stroke:#000000;stroke-miterlimit:10;" x1="67.5" x2="67.5" y1="160" y2="-32"/>
              <line style="fill:none;stroke:#000000;stroke-miterlimit:10;" x1="71.5" x2="71.5" y1="160" y2="-32"/>
              <line style="fill:none;stroke:#000000;stroke-miterlimit:10;" x1="75.5" x2="75.5" y1="160" y2="-32"/>
              <line style="fill:none;stroke:#000000;stroke-miterlimit:10;" x1="79.5" x2="79.5" y1="160" y2="-32"/>
              <line style="fill:none;stroke:#000000;stroke-miterlimit:10;" x1="83.5" x2="83.5" y1="160" y2="-32"/>
              <line style="fill:none;stroke:#000000;stroke-miterlimit:10;" x1="87.5" x2="87.5" y1="160" y2="-32"/>
              <line style="fill:none;stroke:#000000;stroke-miterlimit:10;" x1="91.5" x2="91.5" y1="160" y2="-32"/>
              <line style="fill:none;stroke:#000000;stroke-miterlimit:10;" x1="95.5" x2="95.5" y1="160" y2="-32"/>
              <line style="fill:none;stroke:#000000;stroke-miterlimit:10;" x1="99.5" x2="99.5" y1="160" y2="-32"/>
              <line style="fill:none;stroke:#000000;stroke-miterlimit:10;" x1="103.5" x2="103.5" y1="160" y2="-32"/>
              <line style="fill:none;stroke:#000000;stroke-miterlimit:10;" x1="107.5" x2="107.5" y1="160" y2="-32"/>
              <line style="fill:none;stroke:#000000;stroke-miterlimit:10;" x1="111.5" x2="111.5" y1="160" y2="-32"/>
              <line style="fill:none;stroke:#000000;stroke-miterlimit:10;" x1="115.5" x2="115.5" y1="160" y2="-32"/>
              <line style="fill:none;stroke:#000000;stroke-miterlimit:10;" x1="119.5" x2="119.5" y1="160" y2="-32"/>
              <line style="fill:none;stroke:#000000;stroke-miterlimit:10;" x1="123.5" x2="123.5" y1="160" y2="-32"/>
              <line style="fill:none;stroke:#000000;stroke-miterlimit:10;" x1="127.5" x2="127.5" y1="160" y2="-32"/>
              <line style="fill:none;stroke:#000000;stroke-miterlimit:10;" x1="131.5" x2="131.5" y1="160" y2="-32"/>
              <line style="fill:none;stroke:#000000;stroke-miterlimit:10;" x1="135.5" x2="135.5" y1="160" y2="-32"/>
              <line style="fill:none;stroke:#000000;stroke-miterlimit:10;" x1="136.5" x2="136.5" y1="166" y2="-26"/>
              <line style="fill:none;stroke:#000000;stroke-miterlimit:10;" x1="143.5" x2="143.5" y1="160" y2="-32"/>
              <line style="fill:none;stroke:#000000;stroke-miterlimit:10;" x1="147.5" x2="147.5" y1="160" y2="-32"/>
              <line style="fill:none;stroke:#000000;stroke-miterlimit:10;" x1="151.5" x2="151.5" y1="160" y2="-32"/>
              <line style="fill:none;stroke:#000000;stroke-miterlimit:10;" x1="155.5" x2="155.5" y1="160" y2="-32"/>
            </g>
            <g>
              <line style="fill:none;stroke:#000000;stroke-miterlimit:10;" x1="-32" x2="160" y1="-27.5" y2="-27.5"/>
              <line style="fill:none;stroke:#000000;stroke-miterlimit:10;" x1="-32" x2="160" y1="-23.5" y2="-23.5"/>
              <line style="fill:none;stroke:#000000;stroke-miterlimit:10;" x1="-32" x2="160" y1="-19.5" y2="-19.5"/>
              <line style="fill:none;stroke:#000000;stroke-miterlimit:10;" x1="-32" x2="160" y1="-15.5" y2="-15.5"/>
              <line style="fill:none;stroke:#000000;stroke-miterlimit:10;" x1="-32" x2="160" y1="-11.5" y2="-11.5"/>
              <line style="fill:none;stroke:#000000;stroke-miterlimit:10;" x1="-32" x2="160" y1="-7.5" y2="-7.5"/>
              <line style="fill:none;stroke:#000000;stroke-miterlimit:10;" x1="-32" x2="160" y1="-3.5" y2="-3.5"/>
              <line style="fill:none;stroke:#000000;stroke-miterlimit:10;" x1="-32" x2="160" y1="0.5" y2="0.5"/>
              <line style="fill:none;stroke:#000000;stroke-miterlimit:10;" x1="-32" x2="160" y1="4.5" y2="4.5"/>
              <line style="fill:none;stroke:#000000;stroke-miterlimit:10;" x1="-32" x2="160" y1="8.5" y2="8.5"/>
              <line style="fill:none;stroke:#000000;stroke-miterlimit:10;" x1="-32" x2="160" y1="12.5" y2="12.5"/>
              <line style="fill:none;stroke:#000000;stroke-miterlimit:10;" x1="-32" x2="160" y1="16.5" y2="16.5"/>
              <line style="fill:none;stroke:#000000;stroke-miterlimit:10;" x1="-32" x2="160" y1="20.5" y2="20.5"/>
              <line style="fill:none;stroke:#000000;stroke-miterlimit:10;" x1="-32" x2="160" y1="24.5" y2="24.5"/>
              <line style="fill:none;stroke:#000000;stroke-miterlimit:10;" x1="-32" x2="160" y1="28.5" y2="28.5"/>
              <line style="fill:none;stroke:#000000;stroke-miterlimit:10;" x1="-32" x2="160" y1="32.5" y2="32.5"/>
              <line style="fill:none;stroke:#000000;stroke-miterlimit:10;" x1="-32" x2="160" y1="36.5" y2="36.5"/>
              <line style="fill:none;stroke:#000000;stroke-miterlimit:10;" x1="-32" x2="160" y1="40.5" y2="40.5"/>
              <line style="fill:none;stroke:#000000;stroke-miterlimit:10;" x1="-32" x2="160" y1="44.5" y2="44.5"/>
              <line style="fill:none;stroke:#000000;stroke-miterlimit:10;" x1="-32" x2="160" y1="48.5" y2="48.5"/>
              <line style="fill:none;stroke:#000000;stroke-miterlimit:10;" x1="-32" x2="160" y1="52.5" y2="52.5"/>
              <line style="fill:none;stroke:#000000;stroke-miterlimit:10;" x1="-32" x2="160" y1="56.5" y2="56.5"/>
              <line style="fill:none;stroke:#000000;stroke-miterlimit:10;" x1="-32" x2="160" y1="60.5" y2="60.5"/>
              <line style="fill:none;stroke:#000000;stroke-miterlimit:10;" x1="-32" x2="160" y1="64.5" y2="64.5"/>
              <line style="fill:none;stroke:#000000;stroke-miterlimit:10;" x1="-32" x2="160" y1="68.5" y2="68.5"/>
              <line style="fill:none;stroke:#000000;stroke-miterlimit:10;" x1="-32" x2="160" y1="72.5" y2="72.5"/>
              <line style="fill:none;stroke:#000000;stroke-miterlimit:10;" x1="-32" x2="160" y1="76.5" y2="76.5"/>
              <line style="fill:none;stroke:#000000;stroke-miterlimit:10;" x1="-32" x2="160" y1="80.5" y2="80.5"/>
              <line style="fill:none;stroke:#000000;stroke-miterlimit:10;" x1="-32" x2="160" y1="84.5" y2="84.5"/>
              <line style="fill:none;stroke:#000000;stroke-miterlimit:10;" x1="-32" x2="160" y1="88.5" y2="88.5"/>
              <line style="fill:none;stroke:#000000;stroke-miterlimit:10;" x1="-32" x2="160" y1="92.5" y2="92.5"/>
              <line style="fill:none;stroke:#000000;stroke-miterlimit:10;" x1="-32" x2="160" y1="96.5" y2="96.5"/>
              <line style="fill:none;stroke:#000000;stroke-miterlimit:10;" x1="-32" x2="160" y1="100.5" y2="100.5"/>
              <line style="fill:none;stroke:#000000;stroke-miterlimit:10;" x1="-32" x2="160" y1="104.5" y2="104.5"/>
              <line style="fill:none;stroke:#000000;stroke-miterlimit:10;" x1="-32" x2="160" y1="108.5" y2="108.5"/>
              <line style="fill:none;stroke:#000000;stroke-miterlimit:10;" x1="-32" x2="160" y1="112.5" y2="112.5"/>
              <line style="fill:none;stroke:#000000;stroke-miterlimit:10;" x1="-32" x2="160" y1="116.5" y2="116.5"/>
              <line style="fill:none;stroke:#000000;stroke-miterlimit:10;" x1="-32" x2="160" y1="120.5" y2="120.5"/>
              <line style="fill:none;stroke:#000000;stroke-miterlimit:10;" x1="-32" x2="160" y1="124.5" y2="124.5"/>
              <line style="fill:none;stroke:#000000;stroke-miterlimit:10;" x1="-32" x2="160" y1="128.5" y2="128.5"/>
              <line style="fill:none;stroke:#000000;stroke-miterlimit:10;" x1="-32" x2="160" y1="132.5" y2="132.5"/>
              <line style="fill:none;stroke:#000000;stroke-miterlimit:10;" x1="-32" x2="160" y1="136.5" y2="136.5"/>
              <line style="fill:none;stroke:#000000;stroke-miterlimit:10;" x1="-32" x2="160" y1="140.5" y2="140.5"/>
              <line style="fill:none;stroke:#000000;stroke-miterlimit:10;" x1="-32" x2="160" y1="144.5" y2="144.5"/>
              <line style="fill:none;stroke:#000000;stroke-miterlimit:10;" x1="-32" x2="160" y1="148.5" y2="148.5"/>
              <line style="fill:none;stroke:#000000;stroke-miterlimit:10;" x1="-32" x2="160" y1="152.5" y2="152.5"/>
              <line style="fill:none;stroke:#000000;stroke-miterlimit:10;" x1="-32" x2="160" y1="156.5" y2="156.5"/>
            </g>
            <path d="M160-32v192H-32V-32H160 M160-32H-32v192h192V-32L160-32z"/>
          </g>
        </g>
        <g>
          <rect height="128" style="opacity:0.3;fill:#F44336;" width="4" x="0"/>
          <rect height="128" style="opacity:0.3;fill:#F44336;" width="4" x="124"/>
          <rect height="120" style="opacity:0.3;fill:#F44336;" transform="matrix(-1.836970e-16 1 -1 -1.836970e-16 66 -62)" width="4" x="62" y="-58"/>
          <rect height="120" style="opacity:0.3;fill:#F44336;" transform="matrix(-1.836970e-16 1 -1 -1.836970e-16 190 62)" width="4" x="62" y="66"/>
        </g>
      </g>
    </g>
  </g>
</svg>
